src/assets/outline/ArrowDown.svg

<svg width="24" height="24" viewBox="0 0 24 24"  xmlns="http://www.w3.org/2000/svg">
<path d="M12.0001 21.2501C11.8101 21.2501 11.6201 21.1801 11.4701 21.0301L5.40012 14.9601C5.11012 14.6701 5.11012 14.1901 5.40012 13.9001C5.69012 13.6101 6.17012 13.6101 6.46012 13.9001L12.0001 19.4401L17.5401 13.9001C17.8301 13.6101 18.3101 13.6101 18.6001 13.9001C18.8901 14.1901 18.8901 14.6701 18.6001 14.9601L12.5301 21.0301C12.3801 21.1801 12.1901 21.2501 12.0001 21.2501Z" />
<path d="M12 21.08C11.59 21.08 11.25 20.74 11.25 20.33V3.5C11.25 3.09 11.59 2.75 12 2.75C12.41 2.75 12.75 3.09 12.75 3.5V20.33C12.75 20.74 12.41 21.08 12 21.08Z" />
</svg>

<?xml version="1.0" encoding="UTF-8"?>
<svg width="24" height="24" viewBox="0 0 24 24" xmlns="http://www.w3.org/2000/svg">
 <path d="m12 21.25c-0.19 0-0.38-0.07-0.53-0.22l-6.07-6.07c-0.29-0.29-0.29-0.77 0-1.06s0.77-0.29 1.06 0l5.54 5.54 5.54-5.54c0.29-0.29 0.77-0.29 1.06 0s0.29 0.77 0 1.06l-6.07 6.07c-0.15 0.15-0.34 0.22-0.53 0.22z"/>
 <path d="m12 21.08c-0.41 0-0.75-0.34-0.75-0.75v-16.83c0-0.41 0.34-0.75 0.75-0.75s0.75 0.34 0.75 0.75v16.83c0 0.41-0.34 0.75-0.75 0.75z"/>
</svg>
